X:1
T:Eichendorff-Lieder
T:Unfall
T:Eichendorff-Lieder
T:15. Unfall
T:Hugo Wolf
T:Joseph von Eichendorff
T:OpenScore (CC0)
T:OpenScore (CC0)
T:OpenScore (CC0)
C:Hugo Wolf
Z:Joseph von Eichendorff
Z:OpenScore (CC0)
%%score 1 { ( 2 4 ) | ( 3 5 6 ) }
L:1/8
Q:1/4=60
M:4/8
K:F
V:1 treble nm="Voice"
V:2 treble nm="Piano"
V:4 treble 
V:3 bass 
V:5 bass 
V:6 bass 
V:1
"^Gemächlich" A | A d =B ^c | (d/^c/) (d/e/) f z/ f/ | e =B B A | (^G^F) E z/ A/ | A d =B ^c | %6
w: Ich|ging bei Nacht einst|ü- * ber _ Land, ein|Bürsch- lein traf ich|drau- * ssen, das|hat 'nen Stut- zen|
w: As|once I walked a-|broad * at _ night, I|met a sauc- y|fel- * low, he|aimed a mus- ket|
 (d/^c/) (d/e/) f f | f3/2 f/ f f | e2 E z/!f! e/ | =g g f e | d e f z/ f/ | f f e d | %12
w: in _ der _ Hand und|zielt auf mich voll|Grau- sen. Ich|ren- ne, da ich|mich er- bos', auf|ihn in vol- lem|
w: at _ me _ straight, with|fear my cheek turned|sal- low. I|ran at him, he|'gan to scoff, my|chol- er fair- ly|
 ^c=B A!p! F | .B .B .=c .c | ._d .d ._g z | z!p! B"^weinerlich" f2 | %16
w: Ra- * sen, da|drückt das kek- ke|Bürsch- lein los|und ich|
w: rose, _ Sir, the|sauc- y fel- low's|gun went off,|and I|
 z"^zurückhaltend"[Q:1/4=58] _d[Q:1/4=56] z[Q:1/4=54] A/ B/ | %17
w: stürzt' auf die|
w: fell on my|
!p![Q:1/4=52] _G3 !breath!F[Q:1/4=50][Q:1/4=40] |[Q:1/4=60] z4 | _e e3/4 _g/4 c2- | %20
w: Na- sen.||Er a- ber lacht|
w: nose, Sir!||He on- ly laughed|
 c3/4 _d/4 _e3/4 !courtesy!_g/4 c2 | B B3/4 B/4 (B/>c/) (_d/>_e/) | f F z F | B B B B | %24
w: _ mir ins Ge- sicht,|dass er mich an- * ge- *|schos- sen, Cu-|pi- do war der|
w: _ at my sad plight|tho' he had al- * most *|killed me, Dan|Cu- pid was the|
 B3/2 B/ d2 | z"^sehr zurückhaltend"[Q:1/4=55] !>!d[Q:1/4=50] E/ F/[Q:1/4=45] G3/4 B/4 | %26
w: klei- ne Wicht|das hat mich sehr ver-|
w: sauc- y wight,|and that with an- ger|
[Q:1/4=40] (F2 !trill(!TE2) |"^a tempo"[Q:1/4=60] D z z2 | z4 | z4 | z4 |] %31
w: dros- *|sen.||||
w: filled _|me.||||
V:2
 z |[K:bass]!p! .[F,A,].[^F,D] .[G,=B,].[G,E] | .[=F,A,] [F,A,F]2 [F,A,F] | %3
[K:treble] [=B,E] [B,E=B]2 [B,^DB] | z{/^A} [=A=B]{/^d} [^Ge]!>![=G^c=a] | %5
[K:bass] .[F,A,].[^F,D] .[G,=B,].[G,E] | .[=F,A,] [F,A,F]2 [F,A,F] | %7
[K:treble]!<(! [A,CF] (([B,_DF-][A,CF])) [B,DF] | [A,CE]!<)![A,C^F]!mf! [=B,E^G]2 | %9
!f! (3(^d/e/).e/ (3(e/g/).g/ (3(d/e/).e/ (3(e/g/).g/ | %10
 (3(e/f/).f/ (3(f/a/).a/ (3(e/f/).f/ (3(f/a/).a/ | %11
 (3(^g/a/).a/ (3(a/c'/).c'/ (3(^a/=b/).b/ (3(b/e'/).e'/ | %12
!<(! (3(^d'/e'/).e'/ (3(d'/e'/).e'/!<)! (3[a^c'a']/[ac'a']/[ac'a']/ z | %13
!p! [_D_B]/ z/ [DB]/z/4[DB]/4 [Fc]/ z/ [Fc]/z/4[Fc]/4 | [F_d]/ z/ [Fd]/z/4[Fd]/4 z .[_G_c_g] | %15
 .[_g_c'_g'] z z!p! .[FBf] | .[_gbf']"^zurückhaltend" z!pp! [_FB] z | z2 [=A,_E=A]2 | %18
"^a tempo" (3[DFB]/ =E/_E/ (3=D/_D/C/ B, z | %19
 z2!pp!!8va(! (3[b_g']/[bf']/[b=e']/ (3[b_e']/[bd']/[b_d']/ | %20
 [=ac'] z (3[af']/[a=e']/[a_e']/ (3[ad']/[a_d']/[ac']/ | %21
 z3/4!p! [bf']/4[bf'b']/ z/ z3/4!<(! [bf']/4[bf'b']/!<)! z/ | %22
 z3/4!mp! [ac']/4[ac'f']/z/4[gbe']/4 [faf']!8va)! z | %23
!mf! [FB]/!<(! z/ [FB]/z/4[FB]/4 [^FBd]/ z/ [FBd]/z/4[FBd]/4 | %24
 [B_eg]/ z/ [Beg]/z/4[Beg]/4!<)! z [d^fbd']/ z/ |!p! [B,=E]4 | (F2 E2) | %27
 [F,D]/ z/4!f! (d'/4!>(! !trill(!!>!Te2-)!>)!!p! (3e/.f/.e/ | %28
 d/ z/4!f! (b/4!>(! !trill(!!>!TE2)!>)!!p!{^DE} (3G/.F/.E/ | %29
 D/ z/4!f! .[fd']/4.[af'a']/ z/ z!pp! .[^G,F] | .[F,D] z z2 |] %31
V:3
 z | .D,,.A,, .D,,.A,, | .D,,.A,, .D,,.A,, | .=B,,.G, .B,,.^F, | .E,[=B,,=B,] [E,B,]!>![A,E] | %5
 .D,,.A,, .D,,.A,, | .D,,.A,, D,,.A,, | [F,,C,] (([B,,F,][F,,C,])) [B,,F,] | %8
 ([E,,-A,,E,-]2 [E,,=B,,E,]2) | .D,,/.A,,/D,,/.A,,/ .D,,/.A,,/.D,,/.A,,/ | %10
 .D,,/.A,,/.D,,/.A,,/ .D,,/.A,,/.D,,/.A,,/ | .F,,/.C,/.F,,/.C,/ .^G,,/.E,/.G,,/.E,/ | %12
 .A,,/.E,/.[E,,=B,,]/.E,/ [A,,E,] z | %13
 [_B,,F,]/ z/ [B,,F,]/z/4[B,,F,]/4 [F,A,]/ z/ [F,A,]/z/4[F,A,]/4 | %14
 [B,_D]/ z/ [B,D]/z/4[B,D]/4 z .[!courtesy!_E,B,_C] | %15
[K:treble] .[!courtesy!_EB_c] z z[K:bass] .[_D,B,] |[K:treble] [_GB] z[K:bass] [_G,B,] z | %17
 z!pp! (C,/4"^dim."B,,/4_A,,/4_G,,/4 F,,2) | (3[B,,F,B,]/ =E,/_E,/ (3=D,/_D,/C,/ B,, z | %19
 z2[K:treble] (3[c_e]/[ce]/[ce]/ (3[ce]/[ce]/[_df]/ | [e_g] z (3[eg]/[eg]/[eg]/ (3[ef]/[ef]/[ef]/ | %21
 z3/4 [_df]/4[df]/ z/ z3/4 [_GB]/4[GB]/ z/ | z3/4 [Fc]/4[Fc]/z/4[Cc]/4 [Fc] z | %23
 D/ z/ D/z/4D/4 D/ z/ D/z/4D/4 | _E/ z/ E/z/4E/4 z[K:bass] [^F,B,D]/ z/ | [G,,D,G,]4 | %26
 (D,2 =B,A,) | [D,,D,]/ z/[K:treble] !>![GBd]2 [A,^CGA] | %28
 [DF]/ z/[K:bass] !>![G,B,D]2 .[A,,C,G,A,] | %29
 [D,F,A,]/ z/4[K:treble] .[FB]/4.[DA]/ z/ z[K:bass] .[D,,B,,] | .[D,,A,,] z z2 |] %31
V:4
 x |[K:bass] x4 | x4 |[K:treble] x4 | x4 |[K:bass] x4 | x4 |[K:treble] x4 | x4 | %9
 [_B^c][Bc] [Bc][Bc] | [A=d][Ad] [Ad][Ad] | [cf][cf] [e^g][eg] | [a^c'][^g=b] x2 | x4 | x4 | x4 | %16
 x4 | x4 | x4 | x2!8va(! x2 | x4 | x4 | x3!8va)! x | x4 | x4 | x4 | (B,D [^G,D][=G,^C]) | x4 | x4 | %29
 x4 | x4 |] %31
V:5
 x | x4 | x4 | x4 | x4 | x4 | x4 | x4 | x4 | x4 | x4 | x4 | x4 | x4 | x4 |[K:treble] x3[K:bass] x | %16
[K:treble] x2[K:bass] x2 | x4 | x4 | x2[K:treble] x2 | x4 | x4 | x4 | B,2 A,2 | G,2 x[K:bass] x | %25
 x4 | [^G,,^G,][A,,-A,] A,,2 | x[K:treble] x3 | x[K:bass] x3 | x3/4[K:treble] x9/4[K:bass] x | %30
 x4 |] %31
V:6
 x | x4 | x4 | x4 | x4 | x4 | x4 | x4 | x4 | x4 | x4 | x4 | x4 | x4 | x4 |[K:treble] x3[K:bass] x | %16
[K:treble] x2[K:bass] x2 | x4 | x4 | x2[K:treble] x2 | x4 | x4 | x4 | x4 | x3[K:bass] x | x4 | %26
 x2 A,,2 | x[K:treble] x3 | x[K:bass] x3 | x3/4[K:treble] x9/4[K:bass] x | x4 |] %31

